web/hub/apple-mask-icon.svg

<svg enable-background="new 0 0 16 16" height="16" viewBox="0 0 16 16" width="16" xmlns="http://www.w3.org/2000/svg"><path d="m12.4 4.8c0-.4-.3-.6-.8-.6h-1.3v1.3h1.2c.6-.1.9-.3.9-.7z"/><path d="m11.9 6.5h-1.6v1.3h1.7c.6 0 .8-.2.8-.7-.1-.3-.3-.6-.9-.6z"/><path d="m1 1v14h14v-14zm2 2h1.3v2.4h2.4v-2.4h1.3v6h-1.3v-2.4h-2.4v2.4h-1.3zm6 10h-6v-1h6zm2.7-4.1h-2.8l.1-5.9h2.7c.7 0 1.2.2 1.5.5s.4.6.4 1c0 .7-.4 1.1-.8 1.3.7.3 1.1.7 1.1 1.5 0 1.1-.9 1.6-2.2 1.6z"/></svg>

<?xml version="1.0" encoding="utf-8"?>
<!-- Generator: Adobe Illustrator 19.1.0, SVG Export Plug-In . SVG Version: 6.00 Build 0)  -->
<svg version="1.1" id="Layer_1" xmlns="http://www.w3.org/2000/svg" xmlns:xlink="http://www.w3.org/1999/xlink" x="0px" y="0px"
	 width="16" height="16" viewBox="0 0 16 16" style="enable-background:new 0 0 16 16;" xml:space="preserve">
<g>
	<path d="M12.4,4.8c0-0.4-0.3-0.6-0.8-0.6h-1.3v1.3h1.2C12.1,5.4,12.4,5.2,12.4,4.8z"/>
	<path d="M11.9,6.5h-1.6v1.3H12c0.6,0,0.8-0.2,0.8-0.7C12.7,6.8,12.5,6.5,11.9,6.5z"/>
	<path d="M1,1v14h14V1H1z M3,3h1.3v2.4h2.4V3H8v6H6.7V6.6H4.3V9H3V3z M9,13H3v-1h6V13z M11.7,8.9H8.9L9,3h2.7c0.7,0,1.2,0.2,1.5,0.5
		s0.4,0.6,0.4,1c0,0.7-0.4,1.1-0.8,1.3c0.7,0.3,1.1,0.7,1.1,1.5C13.9,8.4,13,8.9,11.7,8.9z"/>
</g>
</svg>
